!!!COM: Bach, Johann Sebastian
!!!OTL: Ich dank' dir, lieber Herre
!!!ONM: No. 272
!!!OCL: Erk
!!!YOE: Riemenschneider, Albert
!!!OPR: 371 Harmonized Chorales and 69 Chorale Melodies with Figured Bass
!!!OPT: Bach Chorale Harmonizations
**kern	**kern	**kern	**kern
! bass	! tenor	! alto	! soprano
*M4/4	*M4/4	*M4/4	*M4/4
*B-:	*B-:	*B-:	*B-:
8B-	4d	4f	4b-
8A	.	.	.
=1	=1	=1	=1
4G	8d	4g	4b-
.	8e-	.	.
4D	4f	4a-	4b-
!! Repeat sign starts here.
4E-	8e-	4g	4b-
.	8d	.	.
4En	4c	4g	4cc
=2	=2	=2	=2
4F	4c	8g	4a-
.	.	[8f	.
4C	4B-	8f]	4g
.	.	8en	.
4FF;	4A;	4f;	4f;
4AA	4c	4f	4cc
=3	=3	=3	=3
4BB-	8B-	4f	4dd
.	8A	.	.
4C	4G	4en	4cc
4D	4F	4f	4b-
4En	4c	[4c	8an
.	.	.	8g
=4	=4	=4	=4
4F	4c	8c]	4a
.	.	[8f	.
4C	4B-	8f]	4g
.	.	8en	.
4FF;	4A;	4c;	4f;
!! First ending.
4D	4B-	4f	4b-
=1	=1	=1	=1
4E-	8B-	4g	4b-
.	8c	.	.
4BB-	4d	4f	4b-
!! Continuing from the repeat sign.
4E-	8e-	4g	4b-
.	8d	.	.
4En	4c	4g	4cc
=2	=2	=2	=2
4F	4c	8g	4a-
.	.	[8f	.
4C	4B-	8f]	4g
.	.	8en	.
4FF;	4A;	4f;	4f;
4AA	4c	4f	4cc
=3	=3	=3	=3
4BB-	8B-	4f	4dd
.	8A	.	.
4C	4G	4en	4cc
4D	4F	4f	4b-
4En	4c	[4c	8an
.	.	.	8g
=4	=4	=4	=4
4F	4c	8c]	4a
.	.	[8f	.
4C	4B-	8f]	4g
.	.	8en	.
4FF;	4A;	4c;	4f;
!! Second ending.
4D	8d	8b-	4ff
.	8c	8a	.
=5	=5	=5	=5
4G	8B-	4g	4ee-
.	8c	.	.
4B-	8d	8f	4dd
.	8e-	8g	.
4E-	4f	4a	4cc
4D	4f	8b-	4b-
.	.	8a-	.
=6	=6	=6	=6
4E-	2B-	4g	8b-
.	.	.	8cc
4BB-	.	4f	4dd
4F;	4A;	4f;	4cc;
4D	4Bn	4f	4dd
=7	=7	=7	=7
4C	4.c	4e-	4ee-
8F	.	8a-	4dd
8G	8Bn	[8g	.
4A-	4c	8g]	4cc
.	.	8f	.
4G	4d	4g	4bn
=8	=8	=8	=8
2.C;	2.e-;	2.g;	2.cc;
4E-	4A	4c	4f
=9	=9	=9	=9
4D	4B-	4f	4b-
4C	4E-	8g	4cc
.	.	8a	.
4BB-	8F	4b-	4dd
.	8f	.	.
4C	[4e-	8a	4ee-
.	.	8g	.
=10	=10	=10	=10
4D	8e-]	4f	4ff
.	8d	.	.
4E-	8c	4g	8ee-
.	8B-	.	8dd
4F;	4f;	4a;	4cc;
4G	4B-	4b-	4ee-
=11	=11	=11	=11
4F	[4B-	4a-	4dd
2E-	8B-]	4g	4cc
.	8c	.	.
.	4A	4f	4ff
8D	4B-	8f	8b-
8E-	.	8g	8cc
=12	=12	=12	=12
4F	4B-	8f	4dd
.	.	[8e-	.
4FF	4A	8e-]	4cc
.	.	8d	.
4BB-;	4F;	4d;	4b-;
==	==	==	==
*-	*-	*-	*-
!!!CDT: 1685/3//-1750/7/28
!!!OCY: Deutschland
!!!AGN: chorale
!!!AST: Baroque
!!!AIN: vox
!!!YOY: 1941
!!!PPP: New York; London
!!!PPR: G. Schirmer
!!!ENC: David Huron
!!!EED: David Huron
!!!YEN: United States of America
!!!YER: 1992
!!!YEC: Copyright 1992 David Huron
!!!YEM: Rights to all derivative electronic formats reserved.
!!!YER: March 20, 1996
!!!AMT: simple quadruple
!!!EEV: 1.1
